32x32/mimetypes/application-vnd.wolfram.nb.svg

<svg xmlns="http://www.w3.org/2000/svg" width="32" height="32" version="1.1">
 <path style="opacity:0.2" d="M 6.375,3 C 5.61325,3 5,3.6244 5,4.4 V 29.6 C 5,30.37504 5.61325,31 6.375,31 h 19.25 C 26.3862,31 27,30.37504 27,29.6 V 12 L 20,10 18,3 Z"/>
 <path style="fill:#f4f4f7" d="M 6.375,2 C 5.61325,2 5,2.6244 5,3.4 V 28.6 C 5,29.37504 5.61325,30 6.375,30 h 19.25 C 26.3862,30 27,29.37504 27,28.6 V 11 L 20,9 18,2 Z"/>
 <path style="opacity:0.2" d="M 27,12 18,3 v 7.59375 C 18,11.373375 18.62775,12 19.40625,12 Z"/>
 <path style="fill:#fafafa" d="M 27,11 18,2 V 9.59375 C 18,10.373375 18.62775,11 19.40625,11 Z"/>
 <path style="opacity:0.2;fill:#f4f4f7" d="M 6.375,2 C 5.61325,2 5,2.6247906 5,3.4003906 v 1 C 5,3.6247906 5.61325,3 6.375,3 H 18 V 2 Z"/>
 <path style="opacity:0.1;fill-rule:evenodd" d="m 11.054688,15 c 0,0 0.920847,2.881277 0.359374,4.728516 C 10.852592,21.575756 8,23.65625 8,23.65625 c 0,0 3.727403,0.196841 5.142578,1.076172 C 14.557753,25.611754 15.996094,29 15.996094,29 c 0,0 1.913407,-3.733234 2.71289,-4.267578 C 19.508468,24.198081 24,23.650391 24,23.650391 c 0,0 -3.285216,-3.005194 -3.564453,-3.84375 -0.279238,-0.838563 0.509765,-4.804688 0.509765,-4.804688 0,0 -2.954775,1.849609 -5.03125,1.849609 C 13.837589,16.851562 11.054687,15 11.054688,15 Z m 7.367187,3.390625 c -0.0046,0.05603 -0.0156,0.114483 -0.01953,0.169922 -0.04086,0.575506 -0.171642,0.950931 0.136718,1.876953 0.327999,0.984989 0.66083,1.174544 1.060547,1.634766 0.06928,0.07977 0.154013,0.159689 0.226563,0.240234 -0.136228,0.02925 -0.282573,0.04891 -0.414063,0.08008 -0.607999,0.144106 -1.02636,0.151007 -1.814453,0.677734 -0.788072,0.526718 -0.958165,0.927375 -1.298828,1.423829 -0.08923,0.130038 -0.16814,0.276147 -0.255859,0.412109 -0.446634,-0.675012 -0.983141,-1.337086 -1.845703,-1.873047 -0.630189,-0.391573 -1.266094,-0.616413 -1.890625,-0.779297 0.411322,-0.550281 0.785224,-1.17249 1.019531,-1.943359 0.198176,-0.652 0.241046,-1.269813 0.25,-1.865235 0.707443,0.233354 1.480644,0.40625 2.33789,0.40625 0.923997,0 1.745722,-0.202348 2.507813,-0.460937 z"/>
 <path style="fill:#d6342a;fill-rule:evenodd" d="m 11.054688,14 c 0,0 0.920847,2.881277 0.359374,4.728516 C 10.852592,20.575756 8,22.65625 8,22.65625 c 0,0 3.727403,0.196841 5.142578,1.076172 C 14.557753,24.611754 15.996094,28 15.996094,28 c 0,0 1.913407,-3.733234 2.71289,-4.267578 C 19.508468,23.198081 24,22.650391 24,22.650391 c 0,0 -3.285216,-3.005194 -3.564453,-3.84375 -0.279238,-0.838563 0.509765,-4.804688 0.509765,-4.804688 0,0 -2.954775,1.849609 -5.03125,1.849609 C 13.837589,15.851562 11.054687,14 11.054688,14 Z m 7.367187,3.390625 c -0.0046,0.05603 -0.0156,0.114483 -0.01953,0.169922 -0.04086,0.575506 -0.171642,0.950931 0.136718,1.876953 0.327999,0.984989 0.66083,1.174544 1.060547,1.634766 0.06928,0.07977 0.154013,0.159689 0.226563,0.240234 -0.136228,0.02925 -0.282573,0.04891 -0.414063,0.08008 -0.607999,0.144106 -1.02636,0.151007 -1.814453,0.677734 -0.788072,0.526718 -0.958165,0.927375 -1.298828,1.423829 -0.08923,0.130038 -0.16814,0.276147 -0.255859,0.412109 -0.446634,-0.675012 -0.983141,-1.337086 -1.845703,-1.873047 -0.630189,-0.391573 -1.266094,-0.616413 -1.890625,-0.779297 0.411322,-0.550281 0.785224,-1.17249 1.019531,-1.943359 0.198176,-0.652 0.241046,-1.269813 0.25,-1.865235 0.707443,0.233354 1.480644,0.40625 2.33789,0.40625 0.923997,0 1.745722,-0.202348 2.507813,-0.460937 z"/>
</svg>

<svg xmlns="http://www.w3.org/2000/svg" width="32" height="32"><path style="opacity:.2" d="M6.375 3C5.613 3 5 3.624 5 4.4v25.2c0 .775.613 1.4 1.375 1.4h19.25c.761 0 1.375-.625 1.375-1.4V12l-7-2-2-7z"/><path style="fill:#f4f4f7" d="M6.375 2C5.613 2 5 2.624 5 3.4v25.2c0 .775.613 1.4 1.375 1.4h19.25c.761 0 1.375-.625 1.375-1.4V11l-7-2-2-7z"/><path style="opacity:.2" d="m27 12-9-9v7.594c0 .78.628 1.406 1.406 1.406z"/><path style="fill:#fafafa" d="m27 11-9-9v7.594c0 .78.628 1.406 1.406 1.406z"/><path style="opacity:.2;fill:#f4f4f7" d="M6.375 2C5.613 2 5 2.625 5 3.4v1C5 3.625 5.613 3 6.375 3H18V2z"/><path style="opacity:.1;fill-rule:evenodd" d="M11.055 15s.92 2.881.36 4.729C10.852 21.576 8 23.656 8 23.656s3.727.197 5.143 1.076c1.415.88 2.853 4.268 2.853 4.268s1.914-3.733 2.713-4.268c.8-.534 5.291-1.082 5.291-1.082s-3.285-3.005-3.564-3.843c-.28-.839.51-4.805.51-4.805s-2.955 1.85-5.032 1.85c-2.076 0-4.86-1.852-4.86-1.852zm7.367 3.39c-.005.057-.016.115-.02.17-.04.576-.171.951.137 1.878.328.984.66 1.174 1.06 1.634.07.08.155.16.227.24-.136.03-.282.05-.414.08-.608.145-1.026.152-1.814.678-.788.527-.959.928-1.3 1.424-.088.13-.167.276-.255.412-.447-.675-.983-1.337-1.846-1.873-.63-.391-1.266-.616-1.89-.78.411-.55.785-1.172 1.02-1.942.197-.652.24-1.27.25-1.866.707.234 1.48.407 2.337.407.924 0 1.746-.203 2.508-.461z"/><path style="fill:#d6342a;fill-rule:evenodd" d="M11.055 14s.92 2.881.36 4.729C10.852 20.576 8 22.656 8 22.656s3.727.197 5.143 1.076c1.415.88 2.853 4.268 2.853 4.268s1.914-3.733 2.713-4.268c.8-.534 5.291-1.082 5.291-1.082s-3.285-3.005-3.564-3.843c-.28-.839.51-4.805.51-4.805s-2.955 1.85-5.032 1.85c-2.076 0-4.86-1.852-4.86-1.852zm7.367 3.39c-.005.057-.016.115-.02.17-.04.576-.171.951.137 1.878.328.984.66 1.174 1.06 1.634.07.08.155.16.227.24-.136.03-.282.05-.414.08-.608.145-1.026.152-1.814.678-.788.527-.959.928-1.3 1.424-.088.13-.167.276-.255.412-.447-.675-.983-1.337-1.846-1.873-.63-.391-1.266-.616-1.89-.78.411-.55.785-1.172 1.02-1.942.197-.652.24-1.27.25-1.866.707.234 1.48.407 2.337.407.924 0 1.746-.203 2.508-.461z"/></svg>
